logos/percy.svg

<?xml version="1.0" encoding="UTF-8"?>
<svg width="512px" height="142px" viewBox="0 0 512 142" version="1.1" xmlns="http://www.w3.org/2000/svg" xmlns:xlink="http://www.w3.org/1999/xlink" preserveAspectRatio="xMidYMid">
    <g>
        <path d="M97.3627848,0 C111.939691,6.48854528 124.858568,16.4790965 125.369493,16.8761232 L125.385179,16.8883327 C123.326853,8.74867775 121.836342,4.39180057 121.836342,4.39180057 C126.415533,6.88297821 131.886122,10.0903522 137.268134,13.4386311 L138.462281,14.1847787 C147.004172,19.5454407 155.137287,25.1554025 158.90315,28.6908465 C162.561807,28.519902 165.488803,27.600559 167.365625,26.8149418 C170.564522,25.4757061 173.253517,28.765531 174.271203,32.1123844 C175.28324,35.4414054 176.501144,40.5799802 176.556937,46.1528902 C176.619792,52.3663565 175.240512,57.7348111 172.458295,62.1102976 C167.189066,70.3970132 156.957094,76.0095077 145.913275,81.7673878 L144.683054,82.4078938 L144.065833,82.7288641 C131.815813,89.0984086 121.597281,95.5618825 113.609749,107.451016 C109.484623,113.59174 106.259596,120.438347 104.12429,127.545555 C101.845972,135.112876 100.046129,141.247244 94.9262699,141.247244 C90.2930071,141.247244 87.5287986,135.278489 85.4393987,131.907623 C81.4202084,125.425081 76.4214684,117.362335 68.3287075,116.680464 C61.1406353,115.61546 55.2407379,118.276205 50.9771898,121.791496 C48.870134,123.528837 47.1246712,125.505239 45.7867067,127.398658 C44.5882238,128.832318 43.4593052,130.302702 42.3618141,131.73283 C39.0082515,136.105138 36.1112705,139.881737 32.2839645,140.976756 C31.6583098,141.156493 31.0426484,141.247244 30.4535062,141.247244 C30.0338808,141.247244 29.5596187,141.19873 29.0605843,141.067012 L28.8091411,140.994059 L28.7991478,141.009596 C16.7371981,137.475943 16.1147922,115.41842 16.1147922,115.41842 C10.3156041,116.799465 4.32728589,120.613141 4.32728589,120.613141 C9.72741522,102.113636 20.0781192,90.0239311 20.0781192,90.0239311 C17.8207202,89.8468378 15.2778584,89.8922242 12.7796429,90.0506622 L12.0673671,90.0989119 C5.79136653,90.5506212 0,91.656043 0,91.656043 C16.1147922,70.9181226 26.9892763,63.3179615 26.9892763,63.3179615 C18.4516572,59.5886812 7.54638121,57.6814903 7.54638121,57.6814903 C27.1758639,46.346752 46.6550241,40.8003259 46.6550241,40.8003259 C42.41231,36.7949071 27.1406933,31.4093969 27.1406933,31.4093969 C30.1222736,30.551596 33.6088409,29.7646114 37.2338925,29.0588013 L38.2257011,28.8683281 C38.8888286,28.742698 39.5554328,28.6197825 40.2233106,28.4996439 L41.2258072,28.3215264 C41.7700171,28.226012 42.3143411,28.132358 42.8575914,28.0405979 L43.6715129,27.9043824 C43.8069828,27.8819179 43.9423484,27.8595729 44.0775912,27.8373478 L44.8874262,27.7054408 C55.257586,26.0312134 64.679585,25.0743521 64.679585,25.0743521 C59.6042184,20.7962202 48.1186987,16.1385923 48.1186987,16.1385923 C54.5859015,15.9178963 60.3693683,15.8384458 65.2444484,15.8324428 L66.591428,15.8326353 C76.1439564,15.8472046 81.861606,16.1385923 81.861606,16.1385923 C78.2937006,11.2357239 69.0981519,4.81981503 69.0981519,4.81981503 C88.2456283,6.62096458 101.89435,11.3725572 101.89435,11.3725572 C101.74934,10.2092911 100.933149,8.03015079 100.032487,5.88820386 L99.7960016,5.33097122 C98.6078501,2.5559506 97.3627848,0 97.3627848,0 Z M66.551111,120.590188 C65.9822377,122.110715 65.343447,123.756245 64.6629884,125.402835 C64.5677364,125.633402 64.4718041,125.864251 64.3752043,126.095083 L64.0834156,126.787228 C61.5864112,132.664922 58.6637878,138.336479 55.5292354,138.831563 C55.3286643,138.862991 55.1242089,138.879234 54.9225785,138.879234 C52.4345083,138.879234 50.2038612,136.58326 48.1186987,131.868074 C51.7861834,126.697366 59.0632414,120.675289 66.551111,120.590188 Z M124.696598,102.113636 C122.643923,109.809492 122.369903,117.538894 122.151323,123.748123 L122.15097,123.754479 C122.00937,127.769079 121.887191,131.23564 121.31408,133.759022 C120.546401,137.138715 118.864853,138.85275 116.314281,138.85275 L116.227414,138.852044 C113.766534,138.812142 111.151694,136.704027 108.28614,132.430944 C109.974751,122.757274 116.658218,110.400612 124.696598,102.113636 Z M238.903823,26.5660289 C247.097223,26.5660289 255.10806,30.1732363 260.478987,36.0032163 C265.842145,41.8257809 269.160396,49.8680458 269.160396,58.7440227 C269.160396,67.6203526 265.842145,75.660852 260.478987,81.4834165 C255.10806,87.3119841 247.097223,90.920498 238.903823,90.920498 C232.902934,90.920498 226.606485,89.0620374 222.219346,84.919962 L222.231705,104.658205 C222.243005,121.25405 209.28922,118.738083 206.288775,118.569293 C205.268617,118.511735 204.47057,118.293155 203.916528,117.747587 C203.362486,117.20202 203.083875,116.419157 203.083875,115.411711 L203.042914,29.8663061 C203.042914,28.8370021 203.32788,28.0262782 203.899225,27.4651029 C204.469158,26.9024092 205.287685,26.6218215 206.337506,26.6218215 L217.603739,26.6218215 C218.653912,26.6218215 219.47244,26.9024092 220.042019,27.4651029 C220.613718,28.0262782 220.885972,28.8292335 220.898684,29.8663061 L220.941058,33.1355795 C223.467618,31.0506289 226.272789,29.4306996 229.238274,28.320814 C232.326999,27.167495 235.593341,26.5660289 238.903823,26.5660289 Z M461.327625,26.4838583 C462.18217,26.4838583 462.909594,26.7148329 463.46752,27.1457782 C464.025447,27.5782773 464.435064,28.2386434 464.78112,29.0524748 L480.872712,66.6934176 L492.416143,29.1578805 C492.663326,28.2587712 493.097661,27.6427566 493.690899,27.1900945 C494.266482,26.7467547 495.004499,26.4838583 495.869638,26.4838583 L509.185722,26.4838583 C510.319231,26.4838583 511.120809,26.8124347 511.593988,27.4107933 C512.063635,28.0324225 512.127196,28.9005633 511.777609,30.0569545 L493.867458,86.26852 L486.956937,108.079213 L484.315614,116.464003 C484.022526,117.395881 483.542285,118.049856 482.885485,118.417452 L482.694801,118.511735 C481.977972,118.80341 481.215237,118.761389 480.318317,118.541397 C477.415686,117.825273 463.954823,116.312162 469.339874,100.59205 L472.532062,91.2662007 L471.80817,89.4543516 L468.30877,81.1359483 L446.387197,30.2088659 C445.906957,29.1516656 446.079985,28.1890303 446.510789,27.5333253 C446.959249,26.8496887 447.746702,26.5040213 448.855493,26.4838583 L461.327625,26.4838583 Z M41.4959685,78.9236633 L26.4838583,101.521457 L40.6301229,88.5870935 L41.4959685,78.9236633 Z M377.310232,26.5737622 C377.974095,26.5815308 378.510834,26.8310793 378.902795,27.2341284 C379.481909,27.8247537 379.757341,28.6230831 379.757341,29.6554945 L379.757341,44.555737 C379.757341,45.566361 379.54547,46.3241525 379.09701,46.8294645 C378.666206,47.333364 378.027062,47.5876091 377.193703,47.5876091 C375.378676,47.5240478 373.644866,47.7133191 371.956962,48.1550699 C370.290244,48.5954082 368.771837,49.3549652 367.447644,50.385717 C366.123451,51.4383621 365.060565,52.8518939 364.283705,54.5740509 C363.499783,56.3226918 363.10076,58.4463441 363.090166,60.9732573 L363.001887,76.8639254 C362.910076,93.4597704 350.059402,90.9455694 347.058957,90.7750134 C346.035621,90.7174551 345.240752,90.5020531 344.68671,89.9550731 C344.130902,89.40774 343.852291,88.6280552 343.852291,87.6188437 L343.852291,29.7794743 C343.852291,28.7703334 344.130902,27.9906133 344.68671,27.4434215 C345.242517,26.8961943 346.034208,26.6233753 347.058957,26.6233753 L359.880323,26.6233753 C360.907896,26.6233753 361.698881,26.8961943 362.253276,27.4434215 C362.811203,27.9906133 363.090166,28.7687797 363.090166,29.7794743 L363.090166,32.9557717 C364.629761,30.2678014 368.143286,26.4513008 377.310232,26.5737622 Z M415.54233,26.4838583 C430.027235,26.4838583 442.156842,35.2608208 445.995236,47.9396678 C446.740315,50.012118 445.500871,51.3546731 443.396287,51.3546731 L429.780053,51.3546731 C428.169834,51.3546731 427.053981,50.6230123 426.06525,49.2818698 C423.837075,46.2344605 419.998681,44.5260751 415.54233,44.5260751 C407.494769,44.5260751 401.304608,50.257182 401.304608,58.6681023 C401.304608,67.0807881 407.494769,72.8101295 415.54233,72.8101295 C419.998681,72.8101295 423.837075,71.1035097 426.06525,68.1782792 C427.053981,66.7149578 428.042711,65.983297 429.780053,65.983297 L443.396287,65.983297 C445.500871,65.983297 446.740315,67.3240865 445.995236,69.3968898 C442.156842,82.0755956 430.027235,90.8541118 415.54233,90.8541118 C396.724666,90.8541118 382.734127,76.832851 382.734127,58.6681023 C382.734127,40.5033535 396.724666,26.4838583 415.54233,26.4838583 Z M307.530563,26.5133084 C312.056124,26.5334714 316.210206,27.3426415 319.995985,28.9439616 C323.778939,30.5437278 327.049872,32.7914306 329.848687,35.6684604 C332.623842,38.5657945 334.783865,41.9465473 336.305804,45.8361432 C337.828097,49.7253861 338.610606,53.9790469 338.631087,58.5967724 C338.631087,59.3874039 338.610606,60.1564951 338.547398,60.8863902 C338.506436,61.6350006 338.445347,62.3652489 338.383904,63.0937315 C338.261019,64.0658657 337.889539,64.7742206 337.315016,65.2205619 C336.738727,65.6672563 335.977051,65.8886614 335.051176,65.8886614 L293.832052,65.8886614 C294.612796,68.279271 295.703931,70.2231862 297.142534,71.7221726 C298.582903,73.2010312 300.270454,74.2752165 302.161049,74.9634437 C304.075302,75.6516709 306.110675,75.9754802 308.271758,75.9754802 C310.018986,75.9553525 311.705125,75.6919264 313.310753,75.1463589 C314.894488,74.5990258 316.271648,73.8691307 317.403392,72.937252 C318.000161,72.4520677 318.596578,72.0661096 319.172867,71.7825558 C319.769636,71.5004144 320.447976,71.3577547 321.22872,71.3577547 L333.077245,71.2369883 C334.208989,71.257116 335.030695,71.5809253 335.52506,72.2087693 C335.997532,72.8366133 336.018013,73.6473725 335.545541,74.6392813 C333.921198,78.1644594 331.759762,81.1207642 329.06653,83.490893 C326.371533,85.8811495 323.245025,87.6622772 319.685947,88.8791222 C316.128282,90.0726614 312.241864,90.6817902 308.024575,90.6817902 C302.882116,90.66025 298.253797,89.8307755 294.140677,88.2096103 C290.007076,86.5895044 286.488608,84.3419076 283.568674,81.4244458 C280.626494,78.5288773 278.3849,75.1244656 276.821999,71.257116 C275.258745,67.36752 274.476236,63.1544679 274.455755,58.5967724 C274.476236,54.0394301 275.279226,49.8260248 276.883089,45.9381944 C278.487304,42.0690792 280.749379,38.6664331 283.691559,35.7694521 C286.613258,32.8534381 290.109127,30.6041817 294.140677,28.9842523 C298.172226,27.3643583 302.634933,26.5334714 307.530563,26.5133084 Z M84.4962202,61.6106355 L50.4888275,77.8519499 L78.8325589,70.9181226 L84.4962202,61.6106355 Z M54.074,57.682 L27.1406933,77.000229 L49.0841236,67.3410362 L54.074,57.682 Z M238.667587,44.3989525 C230.768335,44.3989525 224.366304,50.7451912 224.366304,58.5734666 C224.366304,66.4035076 230.768335,72.7497463 238.667587,72.7497463 C246.565074,72.7497463 252.967105,66.4035076 252.967105,58.5734666 C252.967105,50.7451912 246.565074,44.3989525 238.667587,44.3989525 Z M115.001741,52.0174758 L84.7921332,55.2707529 L106.876493,56.5638714 L115.001741,52.0174758 Z M307.407678,42.6767955 C303.93017,42.6969232 301.010237,43.4875547 298.7072,45.0871797 C296.382271,46.6670302 294.737447,48.9969034 293.770609,52.0351317 L320.200794,52.0351317 C319.542934,49.7455138 318.555616,47.9022373 317.238133,46.5257829 C315.944308,45.1680438 314.422016,44.1757819 312.713983,43.5680656 C311.006304,42.9603493 309.238242,42.6566678 307.407678,42.6767955 Z M81.861606,43.1517394 L51.6519985,46.4043103 L73.8514748,48.5191346 L81.861606,43.1517394 Z M124.413045,39.3649007 L101.89435,44.1397638 L119.415717,43.1517394 L124.413045,39.3649007 Z M73.2448179,31.4093969 L96.6639641,37.401564 L106.87614,34.0110299 L73.2448179,31.4093969 Z M97.3627848,19.8628937 L116.314281,28.6908465 L125.385179,26.8149418 L97.3627848,19.8628937 Z" fill="#5C007B"></path>
    </g>
</svg>

<svg preserveAspectRatio="xMidYMid" viewBox="0 0 512 142" xmlns="http://www.w3.org/2000/svg">
  <path fill="#5C007B" d="M97.363 0c14.577 6.489 27.496 16.48 28.006 16.876l.016.012c-2.058-8.14-3.549-12.496-3.549-12.496 4.58 2.491 10.05 5.698 15.432 9.047l1.194.746c8.542 5.36 16.675 10.97 20.441 14.506 3.659-.171 6.586-1.09 8.463-1.876 3.199-1.34 5.888 1.95 6.905 5.297 1.012 3.33 2.23 8.468 2.286 14.04.063 6.214-1.316 11.583-4.099 15.958-5.269 8.287-15.5 13.9-26.545 19.657l-1.23.64-.617.322c-12.25 6.37-22.469 12.833-30.456 24.722a74.822 74.822 0 0 0-9.486 20.095c-2.278 7.567-4.078 13.701-9.198 13.701-4.633 0-7.397-5.969-9.487-9.34-4.019-6.482-9.018-14.545-17.11-15.227-7.188-1.065-13.088 1.596-17.352 5.111a29.107 29.107 0 0 0-5.19 5.608c-1.199 1.433-2.328 2.904-3.425 4.334-3.354 4.372-6.25 8.149-10.078 9.244-.626.18-1.241.27-1.83.27-.42 0-.894-.048-1.393-.18l-.252-.073-.01.016c-12.062-3.534-12.684-25.592-12.684-25.592-5.8 1.381-11.788 5.195-11.788 5.195 5.4-18.5 15.751-30.59 15.751-30.59-2.257-.176-4.8-.13-7.298.028l-.713.048C5.791 90.55 0 91.656 0 91.656c16.115-20.738 26.99-28.338 26.99-28.338-8.538-3.73-19.444-5.637-19.444-5.637 19.63-11.334 39.109-16.88 39.109-16.88-4.243-4.006-19.514-9.392-19.514-9.392 2.981-.857 6.468-1.644 10.093-2.35l.992-.19c.663-.126 1.33-.25 1.997-.37l1.003-.177c.544-.096 1.088-.19 1.632-.281l.814-.137.406-.067.81-.132a382.47 382.47 0 0 1 19.792-2.63c-5.076-4.279-16.561-8.936-16.561-8.936 6.467-.221 12.25-.3 17.125-.307h1.347c9.553.015 15.27.307 15.27.307-3.567-4.903-12.763-11.32-12.763-11.32 19.148 1.802 32.796 6.554 32.796 6.554-.145-1.164-.96-3.343-1.862-5.485l-.236-.557C98.608 2.556 97.363 0 97.363 0ZM66.55 120.59a153.967 153.967 0 0 1-2.176 5.505l-.292.692c-2.497 5.878-5.42 11.55-8.554 12.045a3.98 3.98 0 0 1-.606.047c-2.488 0-4.72-2.296-6.804-7.01 3.667-5.172 10.944-11.194 18.432-11.279Zm58.146-18.476c-2.053 7.695-2.327 15.425-2.546 21.634v.006c-.142 4.015-.264 7.482-.837 10.005-.768 3.38-2.45 5.094-5 5.094l-.087-.001c-2.46-.04-5.075-2.148-7.94-6.421 1.688-9.674 8.371-22.03 16.41-30.317Zm114.207-75.548c8.193 0 16.204 3.607 21.575 9.437 5.363 5.823 8.681 13.865 8.681 22.741s-3.318 16.917-8.681 22.74c-5.37 5.828-13.382 9.436-21.575 9.436-6.001 0-12.298-1.858-16.685-6l.013 19.738c.011 16.596-12.943 14.08-15.943 13.911-1.02-.057-1.818-.276-2.372-.821-.555-.546-.833-1.329-.833-2.336l-.041-85.546c0-1.029.285-1.84.856-2.4.57-.564 1.389-.844 2.439-.844h11.266c1.05 0 1.868.28 2.438.843.572.561.844 1.364.857 2.401l.042 3.27a29.037 29.037 0 0 1 8.297-4.815 27.611 27.611 0 0 1 9.666-1.755Zm222.424-.082c.854 0 1.582.23 2.14.662.557.432.967 1.093 1.313 1.906l16.092 37.641 11.543-37.535c.247-.9.682-1.515 1.275-1.968.575-.443 1.313-.706 2.179-.706h13.316c1.133 0 1.935.328 2.408.927.47.621.533 1.49.184 2.646l-17.91 56.212-6.911 21.81-2.641 8.385c-.293.932-.774 1.586-1.43 1.953l-.191.095c-.717.291-1.48.25-2.377.03-2.902-.717-16.363-2.23-10.978-17.95l3.192-9.326-.724-1.812-3.5-8.318-21.92-50.927c-.481-1.057-.308-2.02.123-2.676.448-.683 1.236-1.029 2.344-1.05h12.473ZM41.496 78.924 26.484 101.52 40.63 88.587l.866-9.663Zm335.814-52.35c.664.008 1.2.257 1.593.66.579.59.854 1.39.854 2.421v14.9c0 1.011-.212 1.77-.66 2.274-.43.504-1.07.759-1.903.759a18.016 18.016 0 0 0-5.237.567c-1.667.44-3.185 1.2-4.51 2.23-1.324 1.053-2.386 2.467-3.163 4.19-.784 1.748-1.183 3.871-1.194 6.398l-.088 15.89c-.092 16.597-12.943 14.083-15.943 13.912-1.023-.058-1.818-.273-2.372-.82-.556-.547-.835-1.327-.835-2.336v-57.84c0-1.009.279-1.788.835-2.336.556-.547 1.347-.82 2.372-.82h12.821c1.028 0 1.819.273 2.373.82.558.548.837 1.326.837 2.336v3.177c1.54-2.688 5.053-6.505 14.22-6.382Zm38.232-.09c14.485 0 26.615 8.777 30.453 21.456.745 2.072-.494 3.415-2.599 3.415H429.78c-1.61 0-2.726-.732-3.715-2.073-2.228-3.048-6.066-4.756-10.523-4.756-8.047 0-14.237 5.731-14.237 14.142 0 8.413 6.19 14.142 14.237 14.142 4.457 0 8.295-1.706 10.523-4.632.989-1.463 1.978-2.195 3.715-2.195h13.616c2.105 0 3.344 1.341 2.6 3.414-3.84 12.679-15.969 21.457-30.454 21.457-18.817 0-32.808-14.021-32.808-32.186s13.99-32.184 32.808-32.184Zm-108.011.03c4.525.02 8.68.829 12.465 2.43a29.766 29.766 0 0 1 9.853 6.724c2.775 2.898 4.935 6.279 6.457 10.168 1.522 3.89 2.305 8.143 2.325 12.76 0 .791-.02 1.56-.084 2.29a74.528 74.528 0 0 1-.163 2.208c-.123.972-.494 1.68-1.069 2.127-.576.446-1.338.668-2.264.668h-41.219c.78 2.39 1.872 4.334 3.31 5.833a13.266 13.266 0 0 0 5.019 3.241c1.914.689 3.95 1.012 6.11 1.012 1.748-.02 3.434-.283 5.04-.829 1.583-.547 2.96-1.277 4.092-2.209a9.449 9.449 0 0 1 1.77-1.154c.597-.283 1.275-.425 2.056-.425l11.848-.121c1.132.02 1.954.344 2.448.972.473.628.493 1.438.02 2.43-1.624 3.525-3.785 6.482-6.478 8.852-2.695 2.39-5.822 4.171-9.381 5.388-3.558 1.194-7.444 1.803-11.661 1.803-5.143-.022-9.771-.851-13.884-2.472-4.134-1.62-7.652-3.868-10.572-6.786-2.943-2.895-5.184-6.3-6.747-10.167-1.563-3.89-2.346-8.103-2.366-12.66.02-4.558.823-8.771 2.427-12.659 1.604-3.869 3.866-7.272 6.809-10.169 2.921-2.916 6.417-5.165 10.449-6.785 4.031-1.62 8.494-2.45 13.39-2.47ZM84.496 61.61 50.49 77.85l28.344-6.933 5.663-9.307Zm-30.422-3.929L27.141 77l21.943-9.659 4.99-9.659Zm184.594-13.283c-7.9 0-14.302 6.346-14.302 14.174 0 7.83 6.402 14.177 14.302 14.177 7.897 0 14.3-6.346 14.3-14.177 0-7.828-6.403-14.174-14.3-14.174Zm-123.666 7.618-30.21 3.254 22.084 1.293 8.126-4.547Zm192.406-9.34c-3.478.02-6.398.81-8.7 2.41-2.326 1.58-3.97 3.91-4.937 6.948h26.43c-.658-2.29-1.645-4.133-2.963-5.51a11.557 11.557 0 0 0-4.524-2.957 15.21 15.21 0 0 0-5.306-.891Zm-225.546.475-30.21 3.252 22.2 2.115 8.01-5.367Zm42.551-3.787-22.519 4.775 17.522-.988 4.997-3.787Zm-51.168-7.956 23.419 5.993 10.212-3.391-33.631-2.602Zm24.118-11.546 18.951 8.828 9.071-1.876-28.022-6.952Z"/>
</svg>
